X:102
T:Shelf #2, The
R:polka
D:Skylark: Raining Bicycles
Z:id:hn-polka-102
M:2/4
L:1/8
K:G
B/A/|:GD/G/ BG/B/|d/c/B/d/ g>B|dc cA|ed B/c/B/A/|
GD/G/ BG/B/|d/c/B/d/ g>B|dc cA|1 AG GB/A/:|2 AG G>B||
|:dc cA|ed B>c|dc cA|ed B/c/B/A/|
GD/G/ BG/B/|d/c/B/d/ g>B|dc cA|1 AG G>B:|2 AG G||

